X: 31062
T: Paddy Cronin's
R: reel
M: 4/4
K: Gmajor
Bc|:dGGG ABcA|dGGG c2 Bc|dGGG ABcA|1 dBcA G2 Bc:|2 dBcA G2 FG||
|:Adde fded|eggf g2 ag|fddd eccc|1 dBcA G2 FG:|2 dBcA G2||

